X: 16881
T: Hattie Man O' Ree, The
R: reel
M: 4/4
K: Gmajor
|:f2|gd BG DG Bd|cB AF G2 D2|EG cG DG BG|AB ^cA d2>f2|
gd BG DG Bd|cB AF G2 D2|EG Bd DF Ac|B2 G2 G2:|
F2|EC EG cG EG|DB, DG B2 G2|FD FA cA FA|GB AG D2Y G2|
EC EG cG EG|DB, DG B2 G2|FD FA cA FA|GB AG D2Y G2|
EC EG cG EG|DB, DG B2 G2|FD FA cA FG|AB ^cA d2 >f2|
gd BG DG Bd|cB AF G2 D2|EG Bd DF Ac|B2 G2 G2||

